build/img/icon__furniture.svg

<svg width="36" height="36" viewBox="0 0 36 36" fill="none" xmlns="http://www.w3.org/2000/svg">
<g opacity="0.4">
<path d="M21.5511 28.2279C21.9434 28.2279 22.2614 27.9099 22.2614 27.5176C22.2614 27.1254 21.9434 26.8073 21.5511 26.8073C21.1588 26.8073 20.8408 27.1254 20.8408 27.5176C20.8408 27.9099 21.1588 28.2279 21.5511 28.2279Z" fill="black"/>
<path d="M14.4486 28.2279C14.8409 28.2279 15.1589 27.9099 15.1589 27.5176C15.1589 27.1254 14.8409 26.8073 14.4486 26.8073C14.0563 26.8073 13.7383 27.1254 13.7383 27.5176C13.7383 27.9099 14.0563 28.2279 14.4486 28.2279Z" fill="black"/>
<path d="M29.6483 0H6.35098C5.27702 0 4.40332 0.873703 4.40332 1.94766V25.8047C4.40332 26.096 4.63943 26.332 4.93066 26.332C5.2219 26.332 5.45801 26.096 5.45801 25.8047V1.94766C5.45801 1.45526 5.85858 1.05469 6.35098 1.05469H29.6483C30.1407 1.05469 30.5413 1.45526 30.5413 1.94766V9.36492C30.5413 9.65623 30.7773 9.89227 31.0686 9.89227C31.3599 9.89227 31.596 9.65623 31.596 9.36492V1.94766C31.596 0.873703 30.7222 0 29.6483 0V0Z" fill="black"/>
<path d="M31.0686 11.3126C30.7773 11.3126 30.5413 11.5486 30.5413 11.8399V31.7791C30.5413 32.2715 30.1407 32.6721 29.6483 32.6721H6.35098C5.85858 32.6721 5.45801 32.2715 5.45801 31.7791V28.2797C5.45801 27.9884 5.2219 27.7523 4.93066 27.7523C4.63943 27.7523 4.40332 27.9884 4.40332 28.2797V31.7791C4.40332 32.8531 5.27702 33.7268 6.35098 33.7268H6.67617V35.4726C6.67617 35.7639 6.91228 36 7.20352 36H9.47637C9.7676 36 10.0037 35.7639 10.0037 35.4726V33.7268H25.9956V35.4726C25.9956 35.7639 26.2316 36 26.5229 36H28.7958C29.0871 36 29.3231 35.7639 29.3231 35.4726V33.7268H29.6483C30.7222 33.7268 31.596 32.8531 31.596 31.7791V11.8399C31.596 11.5486 31.3599 11.3126 31.0686 11.3126ZM8.94902 34.9453H7.73086V33.7268H8.94902V34.9453ZM28.2684 34.9453H27.0503V33.7268H28.2684V34.9453Z" fill="black"/>
<path d="M29.3227 2.80019C29.3227 2.50888 29.0867 2.27284 28.7954 2.27284H7.20312C6.91189 2.27284 6.67578 2.50888 6.67578 2.80019V21.8355C6.67578 22.1268 6.91189 22.3628 7.20312 22.3628H28.7954C29.0867 22.3628 29.3227 22.1268 29.3227 21.8355V2.80019ZM7.73047 11.7087H28.268V12.9269H7.73047V11.7087ZM12.5603 6.2095V5.60038H13.7785V5.92537V10.654H12.5603V6.2095ZM17.1061 5.92537V5.60038H18.8924V5.92537V10.654H17.1061V5.92537ZM22.22 5.92537V5.60038H23.4381V6.2095V10.654H22.22V5.92537ZM25.7111 10.654H24.4929V6.73684H25.7111V10.654ZM21.1653 10.654H19.9471V6.45271H21.1653V10.654ZM16.0514 10.654H14.8332V6.45271H16.0514V10.654ZM11.5056 10.654H10.2875V6.73684H11.5056V10.654ZM28.268 3.32753V10.654H26.7658V6.2095C26.7658 5.91819 26.5297 5.68216 26.2384 5.68216H24.4929V5.07304C24.4929 4.78173 24.2569 4.54569 23.9656 4.54569H21.6927C21.4014 4.54569 21.1654 4.78173 21.1654 5.07304V5.39802H19.9472V5.07304C19.9472 4.78173 19.7112 4.54569 19.4199 4.54569H16.5788C16.2876 4.54569 16.0515 4.78173 16.0515 5.07304V5.39802H14.8333V5.07304C14.8333 4.78173 14.5972 4.54569 14.306 4.54569H12.0331C11.7419 4.54569 11.5058 4.78173 11.5058 5.07304V5.68216H9.76025C9.46902 5.68216 9.23291 5.91819 9.23291 6.2095V10.654H7.73061V3.32753H28.268ZM11.7897 21.3081H10.5716V17.3909H11.7897V21.3081ZM12.8444 16.2545H14.0626V21.3081H12.8444V16.2545ZM15.1173 17.1068H16.3355V21.3081H15.1173V17.1068ZM17.3901 16.2545H18.6084V21.3081H17.3901V16.2545ZM19.6631 17.1068H20.8812V21.3081H19.6631V17.1068ZM21.9359 21.3081L21.9358 16.2545H23.154V21.3081H21.9359ZM24.2088 21.3081V17.3909H25.4269V21.3081H24.2088ZM26.4817 21.3081V16.8636C26.4817 16.5723 26.2456 16.3363 25.9543 16.3363H24.2088V15.7271C24.2088 15.4358 23.9727 15.1998 23.6814 15.1998H21.4086C21.1173 15.1998 20.8812 15.4358 20.8812 15.7271V16.0521H19.6631V15.7271C19.6631 15.4358 19.4271 15.1998 19.1358 15.1998H16.8629C16.5716 15.1998 16.3355 15.4358 16.3355 15.7271V16.0521H15.1174V15.7271C15.1174 15.4358 14.8813 15.1998 14.59 15.1998H12.3172C12.0259 15.1998 11.7898 15.4358 11.7898 15.7271V16.3363H10.0443C9.75308 16.3363 9.51697 16.5723 9.51697 16.8636V21.3081H7.73054V13.9816H28.2681V21.3081H26.4817Z" fill="black"/>
<path d="M6.67578 30.9269C6.67578 31.2183 6.91189 31.4543 7.20313 31.4543H16.8628C17.154 31.4543 17.3901 31.2183 17.3901 30.9269V24.1083C17.3901 23.817 17.154 23.581 16.8628 23.581H7.20313C6.91189 23.581 6.67578 23.817 6.67578 24.1083V30.9269ZM7.73047 24.6357H16.3355V30.3996H7.73047V24.6357Z" fill="black"/>
<path d="M28.7905 23.581H19.1309C18.8396 23.581 18.6035 23.817 18.6035 24.1083V30.9269C18.6035 31.2183 18.8396 31.4543 19.1309 31.4543H28.7905C29.0818 31.4543 29.3179 31.2183 29.3179 30.9269V24.1083C29.3179 23.817 29.0818 23.581 28.7905 23.581ZM28.2632 30.3996H19.6582V24.6357H28.2632V30.3996Z" fill="black"/>
</g>
</svg>

<svg width="36" height="36" fill="none" xmlns="http://www.w3.org/2000/svg"><g opacity=".4" fill="#000"><path d="M21.551 28.228a.71.71 0 100-1.42.71.71 0 000 1.42zm-7.102 0a.71.71 0 100-1.42.71.71 0 000 1.42zM29.648 0H6.351a1.95 1.95 0 00-1.948 1.948v23.857a.527.527 0 101.055 0V1.948c0-.493.4-.893.893-.893h23.297c.493 0 .893.4.893.893v7.417a.527.527 0 101.055 0V1.948A1.95 1.95 0 0029.648 0z"/><path d="M31.069 11.313a.527.527 0 00-.528.527v19.94c0 .492-.4.892-.893.892H6.351a.894.894 0 01-.893-.893v-3.5a.527.527 0 10-1.055 0v3.5a1.95 1.95 0 001.948 1.948h.325v1.746c0 .29.236.527.528.527h2.272a.527.527 0 00.528-.527v-1.746h15.992v1.746c0 .29.236.527.527.527h2.273a.527.527 0 00.527-.527v-1.746h.325a1.95 1.95 0 001.948-1.948V11.84a.527.527 0 00-.527-.526zM8.949 34.945H7.731v-1.218h1.218v1.218zm19.32 0H27.05v-1.218h1.218v1.218z"/><path d="M29.323 2.8a.527.527 0 00-.528-.527H7.203a.527.527 0 00-.527.527v19.035c0 .292.236.528.527.528h21.592a.527.527 0 00.528-.527V2.8zM7.73 11.71h20.538v1.218H7.73V11.71zm4.83-5.5V5.6h1.218v5.054H12.56V6.21zm4.546-.284V5.6h1.786v5.054h-1.786V5.925zm5.114 0V5.6h1.218v5.054H22.22V5.925zm3.491 4.729h-1.218V6.737h1.218v3.917zm-4.546 0h-1.218V6.453h1.218v4.201zm-5.114 0h-1.218V6.453h1.218v4.201zm-4.545 0h-1.219V6.737h1.219v3.917zm16.762-7.326v7.326h-1.502V6.21a.527.527 0 00-.528-.528h-1.745v-.609a.527.527 0 00-.527-.527h-2.273a.527.527 0 00-.528.527v.325h-1.218v-.325a.527.527 0 00-.527-.527h-2.841a.527.527 0 00-.527.527v.325h-1.219v-.325a.527.527 0 00-.527-.527h-2.273a.527.527 0 00-.527.527v.61H9.76a.527.527 0 00-.527.527v4.444H7.73V3.328h20.537zM11.79 21.308h-1.218v-3.917h1.218v3.917zm1.054-5.053h1.219v5.053h-1.219v-5.053zm2.273.852h1.218v4.201h-1.218v-4.201zm2.273-.852h1.218v5.053H17.39v-5.053zm2.273.852h1.218v4.201h-1.218v-4.201zm2.273 4.201v-5.053h1.218v5.053h-1.218zm2.273 0v-3.917h1.218v3.917h-1.218zm2.273 0v-4.444a.527.527 0 00-.528-.528H24.21v-.609a.527.527 0 00-.528-.527H21.41a.527.527 0 00-.528.527v.325h-1.218v-.325a.527.527 0 00-.527-.527h-2.273a.527.527 0 00-.527.527v.325h-1.219v-.325a.527.527 0 00-.527-.527h-2.273a.527.527 0 00-.527.527v.61h-1.746a.527.527 0 00-.527.527v4.444H7.731v-7.326h20.537v7.326h-1.786zM6.676 30.927c0 .291.236.527.527.527h9.66a.527.527 0 00.527-.527v-6.819a.527.527 0 00-.527-.527h-9.66a.527.527 0 00-.527.527v6.819zm1.054-6.291h8.605V30.4H7.73v-5.764zm21.06-1.055h-9.66a.527.527 0 00-.526.527v6.819c0 .291.236.527.527.527h9.66a.527.527 0 00.527-.527v-6.819a.527.527 0 00-.527-.527zm-.527 6.819h-8.605v-5.764h8.605V30.4z"/></g></svg>
